X:1
T:Title
%%score { ( 1 3 ) | 2 }
L:1/8
M:4/4
K:Eb
V:1 treble nm="Grand Piano"
V:3 treble 
V:2 bass 
V:1
 z4 z2[Q:1/4=110] [EG][FA] | [GB]2 [GB]2 [FB]2 [DB]2 | G6 BB | z4 [Ec]2[K:bass][K:treble] [Ec]2 | %4
[M:3/4] B2 G4 |[M:1/4] GG |[M:4/4] [FA]2 [FA]2 [DA]2 [DA]2 | [EG]2 [FB]2 [Fe]2 [Fd]2 | %8
 c2 c2 B3 =A |[M:3/4] [DB]6 |[M:1/4] [DB][FA] |[M:4/4] [EG]2 [GB]2 [Ge]2 [Bd]2 | c6 cc | %13
 [Ac]2 [GB]2 [Ge]2 [EG]2 |[M:3/4] [EG]2 [DF]4 |[M:1/4] [DF][DF] |[M:4/4] G2 F2 B2 A2 | %17
 G2 [A,DF]2 [G,E]2 [CFA]2 | [EG]3 [FA] [EG]2 [DF]2 |[M:3/4] E6 |] %20
V:2
 z4 z2 [E,B,][E,B,] | [E,E]2 [E,E]2 [D,B,]2 [B,,B,]2 | [E,B,E]6 [E,G,E][E,G,E] | %3
 [A,,A,]2 [A,,A,]2 .[A,,A,]2 .[C,A,]2 |[M:3/4] [E,G,E]2 [E,B,E]4 |[M:1/4] [E,B,E][E,B,E] | %6
[M:4/4] [B,,B,]2 [D,B,]2 [F,B,]2 [B,,B,]2 | [E,B,]2 [D,B,]2 [C,=A,]2 [D,B,]2 | %8
 [E,G,E]2 [E,G,E]2 [F,D]3 [F,E] |[M:3/4] [B,,F,]6 |[M:1/4] [B,,F,][B,,B,] | %11
[M:4/4] [E,B,]2 [E,E]2 [E,B,]2[K:treble] [G,E]2 | [A,EA]6 [A,EA][A,EA] | %13
 [E,E]2 [E,E]2 [E,B,]2 [E,B,]2 |[M:3/4] [B,,B,]2 [B,,B,]4 |[M:1/4] [B,,B,][B,,B,] | %16
[M:4/4] [E,B,E]2 [A,B,D]2 [G,B,E]2 [F,B,D]2 | [E,B,E]2 B,,2 C,2 A,,2 | %18
 [B,,B,]3 [B,,B,] [B,,B,]2 [B,,B,]2 |[M:3/4] [E,G,]6 |] %20
V:3
 x8 | x8 | x8 | [Ec]2 [Ec]2 z[K:bass] B,,[K:treble] z D, |[M:3/4] x6 |[M:1/4] x2 |[M:4/4] x8 | x8 | %8
 x8 |[M:3/4] x6 |[M:1/4] x2 |[M:4/4] x8 | x8 | x8 |[M:3/4] x6 |[M:1/4] x2 |[M:4/4] x8 | x8 | x8 | %19
[M:3/4] x6 |] %20

